X: 1817
T: Biddy I'm Not Jesting   #2
R: reel
%S: s:2 b:16(8+8)
B: O'Neill's 1850 #1817
O: F.O'Neill
Z: "Transcribed by Bob Safranek, rjs@gsp.org"
N: Compacted by using labels and play order [JC]
Z: Compacted via repeats and multiple endings [JC]
P: Play |: A1A2 :|: BA2 :|
M: C
L: 1/8
K: G
"^A"[|] D2 | DEGA B2 (AG) | AGAB d2 (BG) | E2 (DB,) DEGA |1 B2 A>A A2 :|2 B2 G>G G2 :|
"^BM"|: D2 | GABd e2 (ge) | dBGE c2 (Bc) | dBGE DEGA | B2 A>A A2 D2 |]
